static/assets/images/addons/logos/mariadbs.svg

<svg width="16" height="16" viewBox="0 0 16 16" fill="none" xmlns="http://www.w3.org/2000/svg">
<g clip-path="url(#clip0_703_2629)">
<path d="M15.4081 2.45736C15.0652 2.57165 14.8366 2.68595 14.4937 2.68595C13.1223 2.80023 12.6652 3.25737 11.6366 4.85737C10.4937 6.8002 10.0366 7.14305 7.40809 7.94305C5.23664 8.62875 4.89377 8.74305 4.43663 9.2002C4.09377 9.54305 3.75092 9.8859 3.40806 10.2288C2.95092 10.8002 2.83663 10.9145 2.49377 10.9145C2.2652 10.9145 1.92235 10.9145 1.69378 10.8002C1.23663 10.6859 0.665203 10.6859 0.20806 10.9145C0.0937745 11.0288 -0.0205078 11.0288 -0.0205078 11.1431C0.208064 11.3717 0.550908 11.6003 0.893763 11.8288C1.00805 11.8288 1.00805 11.9431 0.893763 12.0574C0.550908 12.5145 0.436628 12.6288 0.436628 12.7431C0.436628 12.8574 0.436625 12.8574 0.665198 12.8574C0.893768 12.8574 1.12234 12.8574 1.23662 12.7431C2.03662 12.5145 2.72235 12.1717 3.40806 11.7145C4.77949 10.9145 5.12234 10.8002 7.06519 11.0288C7.63664 11.1431 8.20804 11.1431 8.43664 11.1431C8.89379 11.1431 8.89379 11.1431 9.00804 10.9145C9.12234 10.8002 9.23664 10.686 9.23664 10.4574C9.35094 10.2288 9.35094 10.0002 9.57949 9.77165C9.57949 10.3431 9.46524 10.9145 9.23664 11.3717C9.00809 11.8288 8.77949 12.1717 8.43664 12.5145L8.32234 12.6288H8.55094C9.00809 12.5145 9.46519 12.4002 9.92234 12.1717C10.608 11.7145 11.0652 11.0288 11.4081 10.3431C11.4081 10.2288 11.5223 10.1145 11.6366 10.0002C11.6366 10.1145 11.6366 10.2288 11.6366 10.3431V10.686L11.8652 10.5717C12.3223 10.2288 12.7795 9.77165 13.008 9.3145C13.5795 8.17165 13.9223 6.9145 14.1509 5.77165C14.3795 4.85735 14.4938 4.74307 15.4081 4.05735C15.8652 3.82878 16.0938 3.37164 16.0938 2.9145C16.0938 2.22878 15.8652 2.1145 15.4081 2.45736Z" fill="#1971BD"/>
</g>
<defs>
<clipPath id="clip0_703_2629">
<rect width="16" height="16" fill="white"/>
</clipPath>
</defs>
</svg>

<svg xmlns="http://www.w3.org/2000/svg" width="16" height="16" fill="none" xmlns:v="https://vecta.io/nano"><g clip-path="url(#A)"><path d="M15.408 2.457c-.343.114-.571.229-.914.229-1.371.114-1.828.571-2.857 2.171-1.143 1.943-1.6 2.286-4.229 3.086-2.171.686-2.514.8-2.971 1.257l-1.029 1.029c-.457.571-.571.686-.914.686-.229 0-.571 0-.8-.114-.457-.114-1.029-.114-1.486.114-.114.114-.229.114-.229.229.229.229.571.457.914.686.114 0 .114.114 0 .229-.343.457-.457.571-.457.686s0 .114.229.114.457 0 .571-.114c.8-.229 1.486-.571 2.171-1.029 1.371-.8 1.714-.914 3.657-.686.571.114 1.143.114 1.371.114.457 0 .457 0 .571-.229.114-.114.229-.229.229-.457.114-.229.114-.457.343-.686 0 .571-.114 1.143-.343 1.6s-.457.8-.8 1.143l-.114.114h.229c.457-.114.914-.229 1.371-.457.686-.457 1.143-1.143 1.486-1.829 0-.114.114-.229.229-.343v.343.343l.229-.114c.457-.343.914-.8 1.143-1.257.572-1.143.914-2.4 1.143-3.543.229-.914.343-1.029 1.257-1.714.457-.229.686-.686.686-1.143 0-.686-.229-.8-.686-.457z" fill="#1971bd"/></g><defs><clipPath id="A"><path fill="#fff" d="M0 0h16v16H0z"/></clipPath></defs></svg>
